icons/donut-chart-fill.svg

<svg viewBox="0 0 24 24" fill="currentColor" xmlns="http://www.w3.org/2000/svg">
    <path d="M10.9999 2.04938L11 5.07088C7.6077 5.55612 5 8.47352 5 12C5 15.866 8.13401 19 12 19C13.5723 19 15.0236 18.4816 16.1922 17.6064L18.3289 19.7428C16.605 21.1536 14.4014 22 12 22C6.47715 22 2 17.5228 2 12C2 6.81468 5.94662 2.55115 10.9999 2.04938ZM21.9506 13.0001C21.7509 15.0111 20.9555 16.8468 19.7433 18.3283L17.6064 16.1922C18.2926 15.2759 18.7595 14.1859 18.9291 13L21.9506 13.0001ZM13.0011 2.04948C17.725 2.51902 21.4815 6.27589 21.9506 10.9999L18.9291 10.9998C18.4905 7.93452 16.0661 5.50992 13.001 5.07103L13.0011 2.04948Z"/>
</svg>

<svg xmlns="http://www.w3.org/2000/svg" viewBox="0 0 24 24">
    <g>
        <path fill="none" d="M0 0H24V24H0z"/>
        <path d="M11 2.05v3.02C7.608 5.557 5 8.475 5 12c0 3.866 3.134 7 7 7 1.572 0 3.024-.518 4.192-1.394l2.137 2.137C16.605 21.153 14.4 22 12 22 6.477 22 2 17.523 2 12c0-5.185 3.947-9.449 9-9.95zM21.95 13c-.2 2.011-.994 3.847-2.207 5.328l-2.137-2.136c.687-.916 1.153-2.006 1.323-3.192h3.022zM13.002 2.05c4.724.469 8.48 4.226 8.95 8.95h-3.022c-.438-3.065-2.863-5.49-5.928-5.929V2.049z"/>
    </g>
</svg>
